src/images/raw_icons/interface-font_size.svg

<svg xmlns="http://www.w3.org/2000/svg" width="32" height="22" viewBox="0 0 32 22">
  <g fill="#000000" fill-rule="evenodd">
    <path d="M20.0816454,0 L11.88,21.6 L14.9040562,21.6 L17.2676282,15.1285316 L25.8109034,15.1285316 L28.0884353,21.6 L31.32,21.6 L23.4144337,0 L20.0816454,0 Z M21.6202447,3.20436803 L24.9758084,12.7497212 L18.1356209,12.7497212 L21.6202447,3.20436803 Z"/>
    <path d="M5.76679245,7.56 L0,21.6 L1.42641509,21.6 L3.15849057,17.193 L9.84226415,17.193 L11.5335849,21.6 L12.96,21.6 L7.33839623,7.56 L5.76679245,7.56 Z M6.50037736,8.691 L9.37613208,16.062 L3.62716981,16.062 L6.50037736,8.691 Z"/>
  </g>
</svg>

<?xml version="1.0" encoding="UTF-8" ?>
<svg
   xmlns="http://www.w3.org/2000/svg"
   width="32"
   height="32"
   viewBox="0 0 32 32"
   version="1.1"
>
  <g
     style="fill:#000000;fill-rule:evenodd"
     transform="matrix(0.8,0,0,0.8,3.472,7.36)">
   <path
      d="M 20.081645,0 11.88,21.6 h 3.024056 l 2.363572,-6.471468 h 8.543275 L 28.088435,21.6 H 31.32 L 23.414434,0 Z m 1.5386,3.204368 3.355563,9.545353 h -6.840187 z"
   />
   <path
      d="M 5.7667924,7.56 0,21.6 H 1.4264151 L 3.1584906,17.193 H 9.8422642 L 11.533585,21.6 H 12.96 L 7.3383962,7.56 Z m 0.733585,1.131 2.8757547,7.371 H 3.6271698 Z"
   />
  </g>
</svg>
